X: 4321
M: 2/4
L: 1/16
K: F
c2=Bd |\
cAFz d2^ce | d2z2 DEFG |\
cAFz d2^ce | d2z2 DEFG |\
d2F2 FEFG | E2 c4 c2 |\
_dddz GABc |
_dd =d4 fd |\
cAFA c2e2 | [f6A6] z2 H|]\
[K:Bb] [|\
c2cd B4 | c2cd B4 |\
e2ee dcBd |  cBGB AGAB |\
c2cd B4 | c2cd B4 |\
e2ed cBcd | (c4 B2)"_D.C."z2 :|


